X:213
T:Moon and Seven Stars, The
R:jig 32
S:Thomas Hardy Collection
M:6/8
L:1/8
Q:1/4=140
K:D
|:z|d2A A2F|GAB A3|Bcd efg|fed cBA|
d2A A2F|GAB A3|Bcd efg|Adc d2:|
|:f|e2A A2f|efg f3|efg fed|cec A3|
BGB AFA|BGB AFA|Bcd efg|Adc d2:|]

